/* XPM */
static char *product_logo_32[] = {
/* columns rows colors chars-per-pixel */
"32 32 15 1 ",
"  c None",
". c #1A1F0A",
"X c #252C0D",
"o c #3A4412",
"O c #3B4512",
"+ c #455114",
"@ c #465214",
"# c #7C9021",
"$ c #9CB528",
"% c #9DB628",
"& c #BDDB30",
"* c #C7E733",
"= c #C8E832",
"- c #C8E833",
"; c #C8E933",
/* pixels */
"    ========================    ",
"  ============================  ",
" ============================== ",
" ============================== ",
"================================",
"=====&$$$$$$$$$$$$$$$$$$$$&=====",
"=====$....................$=====",
"=====$....................$=====",
"=====$....................$=====",
"=====$....................$=====",
"=====$....................$=====",
"=====$....................$=====",
"=====$....................$=====",
"=====$....................$=====",
"=====$....................$=====",
"=====$....................$=====",
"=====$....................$=====",
"=====$....................$=====",
"=====$....................$=====",
"=====$.............#$$$$O.$=====",
"=====$.............$====@.$=====",
"=====$.............$====@.$=====",
"=====$.............$====@.$=====",
"=====$.............$====@.$=====",
"=====$.............O@@@@X.$=====",
"=====$....................$=====",
"=====&$$$$$$$$$$$$$$$$$$$$&=====",
"================================",
" ============================== ",
" *============================* ",
"  *==========================*  ",
"    ========================    "
};
